!!!OTL: Feng xiangcha
!!!ARE: Asia, China,ÿJiangxi Duchang
!! IV, 191
!!!SCT: C1953
!!!YEM: Copyright 1995, estate of Helmut Schaffrath.
**kern
*ICvox
*Ivox
*M2/4
*k[]
*C:
{8cc
16cc
16a
8gg
16gg
16ee
=1
2dd}
=2
{4gg
4a
=3
8cc
8a
8gg
8ee
=4
2dd}
=5
{8.a
16g
8a
8dd
=6
4a
4a}
=7
{4ee
8.a
16dd
=8
8.a
16dd
8.a
16dd
=9
8.a
16g
8.a
16dd
=10
4a
4a}
=11
{4dd
8cc
8a
=12
4g
8a
8e
=13
4.g
8a}
=14
{4dd
8cc
8a
=15
4g
8a
8e
=16
2g}
==
!!!AGN: Xiaodiao, Chage
!!!AMT: simple duple
!!!AIN: vox
!!!EED: Helmut Schaffrath
!!!EEV: 1.0
*-
